X: 7790
T: Come Let Us Dance And Sing
R: polka
M: 2/4
K: Dmajor
|:A|d2 f/e/d/e/|fd d/e/d/c/|Be e/f/e/d/|cAA B/c/|
d2 f/e/d/e/|fd d/e/d/c/|B edc|d2d:|
|:A/G/|FA A/B/A/G/|FA A/B/A/G/|FAdf|e/d/c/B/ A A/G/|
FA A/B/A/G/|FAA B/c/|d>e/ g/f/e/d/|aAA:|

